X: 139035
Q: "Irish Jig."
M: 6/8
L: 1/8
K: G
uD !segno!|\
ud |\
vdef ug2ue | vf2vd edB | def g2e | fed e2d |\
def gag | fed edB | def gag | fed ef"_D.C."g |]


